!!!OTL: Pengbai chuzai hailufeng
!!!ARE: Asia, China,ˇGuangdong Haifeng
!! II, 378
!!!SCT: C1970
!!!YEM: Copyright 1995, estate of Helmut Schaffrath.
**kern
*ICvox
*Ivox
!! Mixed meters:  2/4; 3/4
*M3/4
*k[f#c#g#]
*A:
{16cc#
16dd
16cc#
16b
8a
16a
16b
=1
8cc#
16cc#
16b
8a
8ee
=2
16cc#
16b
8a
16cc#
16dd
16cc#
16b
=3
8cc#
16cc#
16b
8g#
8f#
=4
4e
16c#
16e
8f#
=5
8r
8g#
16f#
16g#
8b
=6
2e}
=7
{16b
16cc#
8ee
8ee
16b
16cc#
8ee
8dd
=8
*M2/4
16cc#
16dd
16cc#
16b
8a
16a
16b
=9
8cc#
16cc#
16b
8a
8ee
=10
16cc#
16b
8a
16cc#
16dd
16cc#
16b
=11
8cc#
16cc#
16b
8g#
8f#
=12
4e}
{16c#
16e
8f#
=13
8r
8g#
16f#
16g#
8b
=14
2e}
==
!!!AGN: Xiaodiao, YÅge
!!!AMT: irregular
!!!AIN: vox
!!!EED: Helmut Schaffrath
!!!EEV: 1.0
*-
